--RAW_COLOR 02 ∏.lrtemplate
s = {
	id = "CA48FDBB-1453-4635-9DCF-FCD7B07EFC90",
	internalName = "**RAW_COLOR 02 ©",
	title = "**RAW_COLOR 02 ©",
	type = "Develop",
	value = {
		settings = {
			AutoBrightness = false,
			AutoContrast = false,
			AutoExposure = false,
			AutoShadows = false,
			BlueHue = 0,
			BlueSaturation = 0,
			Brightness = -14,
			CameraProfile = "ACR 3.3",
			ChromaticAberrationB = 0,
			ChromaticAberrationR = 0,
			ColorNoiseReduction = 25,
			Contrast = 51,
			ConvertToGrayscale = false,
			EnableCalibration = true,
			EnableColorAdjustments = true,
			EnableDetail = true,
			EnableGrayscaleMix = true,
			EnableLensCorrections = true,
			EnableSplitToning = true,
			Exposure = 1.1638960838318,
			FillLight = 9,
			GreenHue = 0,
			GreenSaturation = 0,
			HighlightRecovery = 100,
			HueAdjustmentAqua = 0,
			HueAdjustmentBlue = 0,
			HueAdjustmentGreen = 0,
			HueAdjustmentMagenta = 0,
			HueAdjustmentOrange = 0,
			HueAdjustmentPurple = 0,
			HueAdjustmentRed = 0,
			HueAdjustmentYellow = 0,
			LuminanceAdjustmentAqua = 0,
			LuminanceAdjustmentBlue = 0,
			LuminanceAdjustmentGreen = 0,
			LuminanceAdjustmentMagenta = 0,
			LuminanceAdjustmentOrange = 0,
			LuminanceAdjustmentPurple = 0,
			LuminanceAdjustmentRed = 0,
			LuminanceAdjustmentYellow = 0,
			LuminanceSmoothing = 0,
			ParametricDarks = -32,
			ParametricHighlightSplit = 75,
			ParametricHighlights = -13,
			ParametricLights = 24,
			ParametricMidtoneSplit = 50,
			ParametricShadowSplit = 25,
			ParametricShadows = -2,
			RedHue = 0,
			RedSaturation = 0,
			Saturation = -16,
			SaturationAdjustmentAqua = 50,
			SaturationAdjustmentBlue = 58,
			SaturationAdjustmentGreen = 10,
			SaturationAdjustmentMagenta = 0,
			SaturationAdjustmentOrange = 13,
			SaturationAdjustmentPurple = 23,
			SaturationAdjustmentRed = 0,
			SaturationAdjustmentYellow = 23,
			ShadowTint = 0,
			Shadows = 13,
			Sharpness = 25,
			SplitToningBalance = 0,
			SplitToningHighlightHue = 0,
			SplitToningHighlightSaturation = 0,
			SplitToningShadowHue = 0,
			SplitToningShadowSaturation = 0,
			Temperature = 6063.7466311455,
			Tint = 4,
			ToneCurve = {
				0,
				0,
				255,
				255,
			},
			Vibrance = 43,
			VignetteAmount = -46,
			VignetteMidpoint = 91,
			WhiteBalance = "Custom",
		},
		uuid = "14AE91E9-A59C-412B-9044-A2C68C91A58D",
	},
	version = 0,
}
