1. Full Auto-WB (J).lrtemplate
s = {
	id = "A4F02E96-329C-4794-871C-7EEB049894FE",
	internalName = "1. Full Auto-WB (J)",
	title = "1. Full Auto-WB (J)",
	type = "Develop",
	value = {
		settings = {
			AutoBrightness = false,
			AutoContrast = false,
			AutoExposure = false,
			AutoShadows = false,
			AutoTone = true,
			ChromaticAberrationB = 0,
			ChromaticAberrationR = 0,
			Clarity = 85,
			ColorNoiseReduction = 65,
			ConvertToGrayscale = false,
			Defringe = 0,
			EnableColorAdjustments = false,
			EnableDetail = true,
			EnableGrayscaleMix = true,
			EnableLensCorrections = true,
			EnableSplitToning = true,
			HueAdjustmentAqua = 0,
			HueAdjustmentBlue = 0,
			HueAdjustmentGreen = 0,
			HueAdjustmentMagenta = 0,
			HueAdjustmentOrange = 0,
			HueAdjustmentPurple = 0,
			HueAdjustmentRed = 0,
			HueAdjustmentYellow = 0,
			LuminanceAdjustmentAqua = 0,
			LuminanceAdjustmentBlue = 0,
			LuminanceAdjustmentGreen = 0,
			LuminanceAdjustmentMagenta = 0,
			LuminanceAdjustmentOrange = 0,
			LuminanceAdjustmentPurple = 0,
			LuminanceAdjustmentRed = 0,
			LuminanceAdjustmentYellow = 0,
			LuminanceSmoothing = 25,
			ParametricDarks = 11,
			ParametricHighlightSplit = 75,
			ParametricHighlights = -13,
			ParametricLights = -13,
			ParametricMidtoneSplit = 50,
			ParametricShadowSplit = 25,
			ParametricShadows = -6,
			Saturation = 4,
			SaturationAdjustmentAqua = 0,
			SaturationAdjustmentBlue = 0,
			SaturationAdjustmentGreen = 0,
			SaturationAdjustmentMagenta = 0,
			SaturationAdjustmentOrange = 0,
			SaturationAdjustmentPurple = 0,
			SaturationAdjustmentRed = 0,
			SaturationAdjustmentYellow = 0,
			SharpenDetail = 40,
			SharpenEdgeMasking = 0,
			SharpenRadius = 1.5,
			Sharpness = 40,
			SplitToningBalance = 0,
			SplitToningHighlightHue = 0,
			SplitToningHighlightSaturation = 0,
			SplitToningShadowHue = 0,
			SplitToningShadowSaturation = 0,
			ToneCurve = {
				0,
				0,
				32,
				22,
				64,
				56,
				128,
				128,
				192,
				196,
				255,
				255,
			},
			ToneCurveName = "Medium Contrast",
			Vibrance = 13,
			VignetteAmount = -30,
			VignetteMidpoint = 0,
			WhiteBalance = "Auto",
		},
		uuid = "CA83C8E2-0091-462F-ADC6-73B361F9E620",
	},
	version = 0,
}
