2. 400 V2 (J).lrtemplate
s = {
	id = "96F9CF34-CC02-433A-BEFA-275525D2440B",
	internalName = "2. 400 V2 (J)",
	title = "2. 400 V2 (J)",
	type = "Develop",
	value = {
		settings = {
			AutoBrightness = false,
			AutoContrast = false,
			AutoExposure = false,
			AutoShadows = false,
			Brightness = 5,
			Clarity = 41,
			Contrast = 36,
			ConvertToGrayscale = false,
			EnableColorAdjustments = true,
			EnableGrayscaleMix = true,
			EnableLensCorrections = true,
			Exposure = 1,
			FillLight = 31,
			HighlightRecovery = 65,
			HueAdjustmentAqua = 0,
			HueAdjustmentBlue = 0,
			HueAdjustmentGreen = 0,
			HueAdjustmentMagenta = 0,
			HueAdjustmentOrange = 0,
			HueAdjustmentPurple = 0,
			HueAdjustmentRed = 0,
			HueAdjustmentYellow = 0,
			LuminanceAdjustmentAqua = 0,
			LuminanceAdjustmentBlue = 0,
			LuminanceAdjustmentGreen = 0,
			LuminanceAdjustmentMagenta = 0,
			LuminanceAdjustmentOrange = 0,
			LuminanceAdjustmentPurple = 0,
			LuminanceAdjustmentRed = 0,
			LuminanceAdjustmentYellow = 0,
			ParametricDarks = -21,
			ParametricHighlightSplit = 75,
			ParametricHighlights = -49,
			ParametricLights = 2,
			ParametricMidtoneSplit = 50,
			ParametricShadowSplit = 14,
			ParametricShadows = 34,
			Saturation = -27,
			SaturationAdjustmentAqua = 0,
			SaturationAdjustmentBlue = 0,
			SaturationAdjustmentGreen = 0,
			SaturationAdjustmentMagenta = 0,
			SaturationAdjustmentOrange = 0,
			SaturationAdjustmentPurple = 0,
			SaturationAdjustmentRed = 0,
			SaturationAdjustmentYellow = 0,
			Shadows = 10,
			ToneCurve = {
				0,
				0,
				32,
				16,
				64,
				50,
				128,
				128,
				192,
				202,
				255,
				255,
			},
			ToneCurveName = "Medium Contrast",
			Vibrance = -15,
			VignetteAmount = -100,
			VignetteMidpoint = 23,
			WhiteBalance = "As Shot",
		},
		uuid = "17EE51A5-3F73-46B8-824F-6B980B7326E9",
	},
	version = 0,
}
