2. Vintage I.lrtemplate
s = {
	id = "E2B98EFF-C612-49D5-9BB3-0FE63CBF774C",
	internalName = "2. Vintage I",
	title = "2. Vintage I",
	type = "Develop",
	value = {
		settings = {
			AutoBrightness = false,
			AutoContrast = false,
			AutoShadows = false,
			Brightness = 41,
			Clarity = 70,
			Contrast = 79,
			ConvertToGrayscale = false,
			EnableColorAdjustments = true,
			EnableGrayscaleMix = true,
			EnableLensCorrections = true,
			EnableSplitToning = true,
			HueAdjustmentAqua = 0,
			HueAdjustmentBlue = 0,
			HueAdjustmentGreen = 0,
			HueAdjustmentMagenta = 0,
			HueAdjustmentOrange = 0,
			HueAdjustmentPurple = 0,
			HueAdjustmentRed = 0,
			HueAdjustmentYellow = 0,
			LuminanceAdjustmentAqua = 0,
			LuminanceAdjustmentBlue = 0,
			LuminanceAdjustmentGreen = 0,
			LuminanceAdjustmentMagenta = 0,
			LuminanceAdjustmentOrange = 0,
			LuminanceAdjustmentPurple = 0,
			LuminanceAdjustmentRed = 0,
			LuminanceAdjustmentYellow = 0,
			ParametricDarks = 0,
			ParametricHighlightSplit = 75,
			ParametricHighlights = 0,
			ParametricLights = 0,
			ParametricMidtoneSplit = 50,
			ParametricShadowSplit = 25,
			ParametricShadows = 0,
			Saturation = -62,
			SaturationAdjustmentAqua = 0,
			SaturationAdjustmentBlue = 0,
			SaturationAdjustmentGreen = 0,
			SaturationAdjustmentMagenta = 0,
			SaturationAdjustmentOrange = 0,
			SaturationAdjustmentPurple = 0,
			SaturationAdjustmentRed = 0,
			SaturationAdjustmentYellow = 0,
			Shadows = 7,
			SplitToningBalance = 0,
			SplitToningHighlightHue = 0,
			SplitToningHighlightSaturation = 0,
			SplitToningShadowHue = 31,
			SplitToningShadowSaturation = 26,
			ToneCurve = {
				0,
				0,
				32,
				22,
				64,
				56,
				128,
				128,
				192,
				196,
				255,
				255,
			},
			ToneCurveName = "Medium Contrast",
			Vibrance = 30,
			VignetteAmount = -100,
			VignetteMidpoint = 50,
			WhiteBalance = "As Shot",
		},
		uuid = "FEE695AF-B091-4D41-823B-4C076CE5298F",
	},
	version = 0,
}
