300 Look - Soft.lrtemplate
s = {
	id = "/Volumes/Scratch/Lightroom/LR2 Catalog/Lightroom Settings/Develop Presets/User Presets/300 Look - Soft.lrtemplate",
	internalName = "Matt's 300 Look - Soft",
	title = "300 Look - Soft",
	type = "Develop",
	value = {
		settings = {
			AutoBrightness = false,
			AutoContrast = false,
			AutoExposure = false,
			AutoShadows = false,
			BlueHue = 0,
			BlueSaturation = 0,
			Brightness = 0,
			CameraProfile = "Embedded",
			ChromaticAberrationB = 0,
			ChromaticAberrationR = 0,
			Clarity = 0,
			ColorNoiseReduction = 0,
			Contrast = 0,
			ConvertToGrayscale = false,
			Defringe = 0,
			EnableCalibration = true,
			EnableColorAdjustments = true,
			EnableDetail = true,
			EnableGrayscaleMix = true,
			EnableSplitToning = true,
			Exposure = 0,
			FillLight = 65,
			GreenHue = 0,
			GreenSaturation = 0,
			HighlightRecovery = 65,
			HueAdjustmentAqua = 0,
			HueAdjustmentBlue = 0,
			HueAdjustmentGreen = 0,
			HueAdjustmentMagenta = 0,
			HueAdjustmentOrange = 0,
			HueAdjustmentPurple = 0,
			HueAdjustmentRed = 0,
			HueAdjustmentYellow = 0,
			LuminanceAdjustmentAqua = 0,
			LuminanceAdjustmentBlue = 0,
			LuminanceAdjustmentGreen = 0,
			LuminanceAdjustmentMagenta = 0,
			LuminanceAdjustmentOrange = 0,
			LuminanceAdjustmentPurple = 0,
			LuminanceAdjustmentRed = 0,
			LuminanceAdjustmentYellow = 0,
			LuminanceSmoothing = 0,
			ParametricDarks = -8,
			ParametricHighlightSplit = 75,
			ParametricHighlights = 39,
			ParametricLights = 0,
			ParametricMidtoneSplit = 50,
			ParametricShadowSplit = 25,
			ParametricShadows = -28,
			RedHue = 0,
			RedSaturation = 0,
			Saturation = -50,
			SaturationAdjustmentAqua = -100,
			SaturationAdjustmentBlue = -100,
			SaturationAdjustmentGreen = -100,
			SaturationAdjustmentMagenta = -100,
			SaturationAdjustmentOrange = -45,
			SaturationAdjustmentPurple = -100,
			SaturationAdjustmentRed = 25,
			SaturationAdjustmentYellow = -100,
			ShadowTint = 0,
			Shadows = 9,
			SharpenDetail = 25,
			SharpenEdgeMasking = 0,
			SharpenRadius = 1,
			Sharpness = 0,
			SplitToningBalance = -85,
			SplitToningHighlightHue = 0,
			SplitToningHighlightSaturation = 24,
			SplitToningShadowHue = 54,
			SplitToningShadowSaturation = 24,
			ToneCurve = {
				0,
				0,
				255,
				255,
			},
			ToneCurveName = "Linear",
			Vibrance = 0,
			VignetteAmount = -100,
			VignetteMidpoint = 33,
			WhiteBalance = "As Shot",
		},
		uuid = "BABD1289-F3D2-45F8-8C59-900809050D06",
	},
	version = 0,
}
