99 Cent Bleach.lrtemplate
s = {
	internalName = "99 Cent Bleach",
	title = "99 Cent Bleach",
	type = "Develop",
	value = {
		settings = {
			AutoBrightness = false,
			AutoContrast = false,
			AutoExposure = false,
			AutoShadows = false,
			Brightness = 57,
			ChromaticAberrationB = 0,
			ChromaticAberrationR = 0,
			Clarity = 30,
			ColorNoiseReduction = 25,
			Contrast = -21,
			ConvertToGrayscale = false,
			Defringe = 0,
			EnableColorAdjustments = true,
			EnableDetail = true,
			EnableGrayscaleMix = true,
			EnableLensCorrections = true,
			EnableSplitToning = true,
			Exposure = 0.762,
			FillLight = 7,
			HighlightRecovery = 0,
			HueAdjustmentAqua = 0,
			HueAdjustmentBlue = 0,
			HueAdjustmentGreen = 0,
			HueAdjustmentMagenta = 0,
			HueAdjustmentOrange = 0,
			HueAdjustmentPurple = 0,
			HueAdjustmentRed = 0,
			HueAdjustmentYellow = 0,
			LuminanceAdjustmentAqua = 0,
			LuminanceAdjustmentBlue = 0,
			LuminanceAdjustmentGreen = 0,
			LuminanceAdjustmentMagenta = 0,
			LuminanceAdjustmentOrange = 0,
			LuminanceAdjustmentPurple = 0,
			LuminanceAdjustmentRed = 0,
			LuminanceAdjustmentYellow = 0,
			LuminanceSmoothing = 0,
			ParametricDarks = 0,
			ParametricHighlightSplit = 75,
			ParametricHighlights = 0,
			ParametricLights = 0,
			ParametricMidtoneSplit = 50,
			ParametricShadowSplit = 25,
			ParametricShadows = 0,
			Saturation = -12,
			SaturationAdjustmentAqua = -69,
			SaturationAdjustmentBlue = -50,
			SaturationAdjustmentGreen = -74,
			SaturationAdjustmentMagenta = -26,
			SaturationAdjustmentOrange = -50,
			SaturationAdjustmentPurple = -50,
			SaturationAdjustmentRed = -64,
			SaturationAdjustmentYellow = -55,
			Shadows = 14,
			SharpenDetail = 25,
			SharpenEdgeMasking = 0,
			SharpenRadius = 1,
			Sharpness = 25,
			SplitToningBalance = 0,
			SplitToningHighlightHue = 0,
			SplitToningHighlightSaturation = 0,
			SplitToningShadowHue = 0,
			SplitToningShadowSaturation = 0,
			Temperature = 3905,
			Tint = -21,
			ToneCurve = {
				0,
				0,
				32,
				22,
				64,
				56,
				128,
				128,
				192,
				196,
				255,
				255,
			},
			ToneCurveName = "Medium Contrast",
			Vibrance = -10,
			VignetteAmount = 0,
			VignetteMidpoint = 50,
			WhiteBalance = "Custom",
		},
		uuid = "6FB00DCF-982A-4186-A437-653DCF3D0189",
	},
	version = 0,
}
