B&W_basic.lrtemplate
s = {
	internalName = "B&W basic",
	title = "B&W basic",
	type = "Develop",
	value = {
		settings = {
			BlueHue = 0,
			BlueSaturation = 0,
			CameraProfile = "ACR 2.4",
			ConvertToGrayscale = true,
			EnableCalibration = true,
			EnableDetail = true,
			GreenHue = 0,
			GreenSaturation = 0,
			LuminanceSmoothing = 0,
			ParametricDarks = 0,
			ParametricHighlightSplit = 75,
			ParametricHighlights = 0,
			ParametricLights = 0,
			ParametricMidtoneSplit = 50,
			ParametricShadowSplit = 25,
			ParametricShadows = 0,
			RedHue = 0,
			RedSaturation = 0,
			ShadowTint = 0,
			Sharpness = 0,
			ToneCurve = {
				0,
				0,
				32,
				22,
				64,
				56,
				128,
				128,
				192,
				196,
				255,
				255,
			},
			WhiteBalance = "As Shot",
		},
		uuid = "4B9AE367-C886-4A37-A883-AD78FCAA1801",
	},
	version = 0,
}
