LR Adventure Solarize-2.lrtemplate
s = {
	id = "CEB8C236-F7C7-43E1-9E84-0174F5ACC77C",
	internalName = "LR Adventure Solarize",
	title = "LR Adventure Solarize",
	type = "Develop",
	value = {
		settings = {
			ToneCurve = {
				0,
				0,
				64,
				70,
				200,
				100,
				230,
				200,
				255,
				255,
			},
			ToneCurveName = "LR Adventure Solarize",
		},
		uuid = "01B7A108-8D2E-4023-B3CC-3644C6654299",
	},
	version = 0,
}
