M8 - fluorescent.lrtemplate
s = {
	id = "13D24DAE-1785-403A-988C-C2585A62640F",
	internalName = "M8 - fluorescent",
	title = "M8 - fluorescent",
	type = "Develop",
	value = {
		settings = {
			AutoBrightness = false,
			AutoContrast = false,
			AutoShadows = false,
			BlueHue = -36,
			BlueSaturation = 0,
			Brightness = 0,
			CameraProfile = "ACR 3.6",
			ColorNoiseReduction = 50,
			Contrast = 25,
			ConvertToGrayscale = false,
			EnableCalibration = true,
			EnableDetail = true,
			EnableGrayscaleMix = true,
			GreenHue = 30,
			GreenSaturation = 38,
			LuminanceSmoothing = 50,
			ParametricDarks = 0,
			ParametricHighlightSplit = 75,
			ParametricHighlights = 0,
			ParametricLights = 0,
			ParametricMidtoneSplit = 50,
			ParametricShadowSplit = 25,
			ParametricShadows = 0,
			RedHue = 40,
			RedSaturation = 30,
			Saturation = -20,
			ShadowTint = 0,
			Shadows = 5,
			Sharpness = 0,
			Temperature = 3250,
			Tint = 71,
			ToneCurve = {
				0,
				0,
				32,
				22,
				64,
				56,
				128,
				128,
				192,
				196,
				255,
				255,
			},
			WhiteBalance = "Custom",
		},
		uuid = "BDFC176A-6602-4561-AB13-EC47B31D39DF",
	},
	version = 0,
}
