Matt's Deep Blue Sky (Level 3).lrtemplate
s = {
	id = "38E54AB1-4B8E-47A2-8397-83ED495AEAE3",
	internalName = "Matt's Deep Blue Sky (Level 3)",
	title = "Matt's Deep Blue Sky (Level 3)",
	type = "Develop",
	value = {
		settings = {
			ConvertToGrayscale = false,
			EnableColorAdjustments = true,
			HueAdjustmentAqua = 0,
			HueAdjustmentBlue = 0,
			HueAdjustmentGreen = 0,
			HueAdjustmentMagenta = 0,
			HueAdjustmentOrange = 0,
			HueAdjustmentPurple = 0,
			HueAdjustmentRed = 0,
			HueAdjustmentYellow = 0,
			LuminanceAdjustmentAqua = 0,
			LuminanceAdjustmentBlue = -100,
			LuminanceAdjustmentGreen = 0,
			LuminanceAdjustmentMagenta = 0,
			LuminanceAdjustmentOrange = 0,
			LuminanceAdjustmentPurple = 0,
			LuminanceAdjustmentRed = 0,
			LuminanceAdjustmentYellow = 0,
			Saturation = 0,
			SaturationAdjustmentAqua = 0,
			SaturationAdjustmentBlue = 75,
			SaturationAdjustmentGreen = 21,
			SaturationAdjustmentMagenta = 0,
			SaturationAdjustmentOrange = 77,
			SaturationAdjustmentPurple = 0,
			SaturationAdjustmentRed = 36,
			SaturationAdjustmentYellow = 66,
			Vibrance = 31,
		},
		uuid = "AB5A89A2-14BE-4EE2-8286-70C5C0132031",
	},
	version = 0,
}
