Matt's Sin City - Dark Red.lrtemplate
s = {
	id = "184BD4E7-14A2-4015-9B8F-8B67E8022918",
	internalName = "Matt's Sin City - Dark Red",
	title = "Matt's Sin City - Dark Red",
	type = "Develop",
	value = {
		settings = {
			AutoContrast = false,
			AutoShadows = false,
			Clarity = 100,
			Contrast = 100,
			ConvertToGrayscale = false,
			EnableColorAdjustments = true,
			EnableLensCorrections = true,
			HueAdjustmentAqua = 0,
			HueAdjustmentBlue = 0,
			HueAdjustmentGreen = 0,
			HueAdjustmentMagenta = 0,
			HueAdjustmentOrange = 0,
			HueAdjustmentPurple = 0,
			HueAdjustmentRed = 0,
			HueAdjustmentYellow = 0,
			LuminanceAdjustmentAqua = 0,
			LuminanceAdjustmentBlue = 0,
			LuminanceAdjustmentGreen = 0,
			LuminanceAdjustmentMagenta = 0,
			LuminanceAdjustmentOrange = 0,
			LuminanceAdjustmentPurple = 0,
			LuminanceAdjustmentRed = -67,
			LuminanceAdjustmentYellow = 0,
			Saturation = -36,
			SaturationAdjustmentAqua = -100,
			SaturationAdjustmentBlue = -100,
			SaturationAdjustmentGreen = -100,
			SaturationAdjustmentMagenta = -100,
			SaturationAdjustmentOrange = 0,
			SaturationAdjustmentPurple = -100,
			SaturationAdjustmentRed = 0,
			SaturationAdjustmentYellow = -100,
			Shadows = 4,
			Vibrance = 34,
			VignetteAmount = -34,
			VignetteMidpoint = 34,
		},
		uuid = "754E8C14-7311-4CED-982A-54D7FDEE7CCC",
	},
	version = 0,
}
