Matt's Deep Blue Sky (Level 2).lrtemplate
s = {
	id = "0B75877E-D53E-4679-8984-9BDCFB66857F",
	internalName = "Matt's Deep Blue Sky (Level 2)",
	title = "Matt's Deep Blue Sky (Level 2)",
	type = "Develop",
	value = {
		settings = {
			ConvertToGrayscale = false,
			EnableColorAdjustments = true,
			HueAdjustmentAqua = 0,
			HueAdjustmentBlue = 0,
			HueAdjustmentGreen = 0,
			HueAdjustmentMagenta = 0,
			HueAdjustmentOrange = 0,
			HueAdjustmentPurple = 0,
			HueAdjustmentRed = 0,
			HueAdjustmentYellow = 0,
			LuminanceAdjustmentAqua = 0,
			LuminanceAdjustmentBlue = -75,
			LuminanceAdjustmentGreen = 0,
			LuminanceAdjustmentMagenta = 0,
			LuminanceAdjustmentOrange = 0,
			LuminanceAdjustmentPurple = 0,
			LuminanceAdjustmentRed = 0,
			LuminanceAdjustmentYellow = 0,
			Saturation = 0,
			SaturationAdjustmentAqua = 0,
			SaturationAdjustmentBlue = 25,
			SaturationAdjustmentGreen = 21,
			SaturationAdjustmentMagenta = 0,
			SaturationAdjustmentOrange = 77,
			SaturationAdjustmentPurple = 0,
			SaturationAdjustmentRed = 36,
			SaturationAdjustmentYellow = 66,
			Vibrance = 23,
		},
		uuid = "E385DA79-A0A7-4F2B-85C8-DE46B27CE8BA",
	},
	version = 0,
}
