Matt's Surreal Edgy Effect 4 - Really Dark.lrtemplate
s = {
	id = "C7604F89-9F9B-4560-85C1-3118FA16F2B0",
	internalName = "Matt's Surreal Edgy Effect 4 - Really Dark",
	title = "Matt's Surreal Edgy Effect 4 - Really Dark",
	type = "Develop",
	value = {
		settings = {
			AutoExposure = false,
			AutoShadows = false,
			Clarity = 100,
			ConvertToGrayscale = false,
			EnableColorAdjustments = true,
			EnableLensCorrections = true,
			Exposure = 0.5,
			FillLight = 100,
			HighlightRecovery = 60,
			HueAdjustmentAqua = 0,
			HueAdjustmentBlue = 0,
			HueAdjustmentGreen = 0,
			HueAdjustmentMagenta = 0,
			HueAdjustmentOrange = 0,
			HueAdjustmentPurple = 0,
			HueAdjustmentRed = 0,
			HueAdjustmentYellow = 0,
			LuminanceAdjustmentAqua = 0,
			LuminanceAdjustmentBlue = 0,
			LuminanceAdjustmentGreen = 0,
			LuminanceAdjustmentMagenta = 0,
			LuminanceAdjustmentOrange = 0,
			LuminanceAdjustmentPurple = 0,
			LuminanceAdjustmentRed = 0,
			LuminanceAdjustmentYellow = 0,
			ParametricDarks = 0,
			ParametricHighlightSplit = 75,
			ParametricHighlights = 0,
			ParametricLights = 0,
			ParametricMidtoneSplit = 50,
			ParametricShadowSplit = 25,
			ParametricShadows = 0,
			Saturation = -83,
			SaturationAdjustmentAqua = 0,
			SaturationAdjustmentBlue = 0,
			SaturationAdjustmentGreen = 0,
			SaturationAdjustmentMagenta = 0,
			SaturationAdjustmentOrange = 0,
			SaturationAdjustmentPurple = 0,
			SaturationAdjustmentRed = 0,
			SaturationAdjustmentYellow = 0,
			Shadows = 73,
			ToneCurve = {
				0,
				0,
				32,
				16,
				64,
				50,
				128,
				128,
				192,
				202,
				255,
				255,
			},
			ToneCurveName = "Medium Contrast",
			Vibrance = 100,
			VignetteAmount = -94,
			VignetteMidpoint = 25,
		},
		uuid = "DCA82B7A-79D2-4B1B-8027-D7B3FD0FE515",
	},
	version = 0,
}
