Matt's City Nights (Dark).lrtemplate
s = {
	id = "97EAADF4-8804-493F-B6F7-4C07FEE05FCB",
	internalName = "Matt's City Nights (Dark)",
	title = "Matt's City Nights (Dark)",
	type = "Develop",
	value = {
		settings = {
			Clarity = 23,
			EnableSplitToning = true,
			IncrementalTemperature = 28,
			IncrementalTint = 28,
			ParametricDarks = 0,
			ParametricHighlightSplit = 75,
			ParametricHighlights = 73,
			ParametricLights = 0,
			ParametricMidtoneSplit = 50,
			ParametricShadowSplit = 25,
			ParametricShadows = -48,
			SplitToningBalance = 0,
			SplitToningHighlightHue = 62,
			SplitToningHighlightSaturation = 43,
			SplitToningShadowHue = 237,
			SplitToningShadowSaturation = 75,
			ToneCurve = {
				0,
				0,
				255,
				255,
			},
			ToneCurveName = "Linear",
			WhiteBalance = "Custom",
		},
		uuid = "0CFF3D57-E789-4F1D-9144-28F42E4BDB65",
	},
	version = 0,
}
