Mocha brown.lrtemplate
s = {
	id = "BDB04FA7-E2C4-4716-A02B-E04DC28FBBBB",
	internalName = "Mocha brown",
	title = "Mocha brown",
	type = "Develop",
	value = {
		settings = {
			AutoBrightness = false,
			AutoContrast = false,
			AutoExposure = false,
			AutoShadows = false,
			BlueHue = 0,
			BlueSaturation = 48,
			Brightness = 50,
			CameraProfile = "Embedded",
			ChromaticAberrationB = 0,
			ChromaticAberrationR = 0,
			Clarity = 0,
			Contrast = 28,
			ConvertToGrayscale = true,
			Defringe = 0,
			EnableCalibration = true,
			EnableColorAdjustments = true,
			EnableDetail = true,
			EnableGrayscaleMix = true,
			EnableSplitToning = true,
			Exposure = -1.082,
			FillLight = 16,
			GrayMixerAqua = 29,
			GrayMixerBlue = 6,
			GrayMixerGreen = -13,
			GrayMixerMagenta = -72,
			GrayMixerOrange = -6,
			GrayMixerPurple = -81,
			GrayMixerRed = 48,
			GrayMixerYellow = -25,
			GreenHue = 8,
			GreenSaturation = 0,
			HighlightRecovery = 24,
			IncrementalTemperature = 23,
			IncrementalTint = -88,
			LuminanceSmoothing = 0,
			ParametricDarks = -20,
			ParametricHighlightSplit = 75,
			ParametricHighlights = 0,
			ParametricLights = 20,
			ParametricMidtoneSplit = 50,
			ParametricShadowSplit = 25,
			ParametricShadows = -4,
			RedHue = -4,
			RedSaturation = 0,
			ShadowTint = 29,
			Shadows = 36,
			SharpenDetail = 25,
			SharpenEdgeMasking = 0,
			SharpenRadius = 1,
			Sharpness = 0,
			SplitToningBalance = 25,
			SplitToningHighlightHue = 42,
			SplitToningHighlightSaturation = 9,
			SplitToningShadowHue = 25,
			SplitToningShadowSaturation = 28,
			ToneCurve = {
				0,
				0,
				255,
				255,
			},
			ToneCurveName = "Linear",
			VignetteAmount = 0,
			VignetteMidpoint = 50,
			WhiteBalance = "Custom",
		},
		uuid = "3A785743-3EA4-4D66-8B93-C31D17C2699B",
	},
	version = 0,
}
