Modern Antique.lrtemplate
s = {
	internalName = "Modern Antique",
	title = "Modern Antique",
	type = "Develop",
	value = {
		settings = {
			AutoBrightness = false,
			AutoContrast = false,
			AutoExposure = false,
			AutoShadows = false,
			Brightness = 50,
			ChromaticAberrationB = 0,
			ChromaticAberrationR = 0,
			Clarity = 25,
			Contrast = 25,
			ConvertToGrayscale = true,
			Defringe = 0,
			EnableDetail = true,
			EnableGrayscaleMix = true,
			EnableLensCorrections = true,
			EnableSplitToning = true,
			Exposure = 0,
			FillLight = 0,
			GrayMixerAqua = -19,
			GrayMixerBlue = 9,
			GrayMixerGreen = -26,
			GrayMixerMagenta = 5,
			GrayMixerOrange = -17,
			GrayMixerPurple = 16,
			GrayMixerRed = -7,
			GrayMixerYellow = -21,
			HighlightRecovery = 0,
			LuminanceSmoothing = 0,
			ParametricDarks = 0,
			ParametricHighlightSplit = 75,
			ParametricHighlights = 0,
			ParametricLights = 0,
			ParametricMidtoneSplit = 50,
			ParametricShadowSplit = 25,
			ParametricShadows = 0,
			Shadows = 5,
			SharpenDetail = 25,
			SharpenEdgeMasking = 0,
			SharpenRadius = 1,
			Sharpness = 25,
			SplitToningBalance = 67,
			SplitToningHighlightHue = 56,
			SplitToningHighlightSaturation = 19,
			SplitToningShadowHue = 360,
			SplitToningShadowSaturation = 27,
			Temperature = 50000,
			Tint = 0,
			ToneCurve = {
				0,
				0,
				32,
				16,
				64,
				50,
				128,
				128,
				192,
				202,
				255,
				255,
			},
			ToneCurveName = "Medium Contrast",
			VignetteAmount = -100,
			VignetteMidpoint = 50,
			WhiteBalance = "Custom",
		},
		uuid = "E659DC10-C358-40F8-B1C4-ADD76541CEBB",
	},
	version = 0,
}
