Old West.lrtemplate
s = {
	internalName = "Old West",
	title = "Old West",
	type = "Develop",
	value = {
		settings = {
			AutoBrightness = false,
			AutoContrast = false,
			AutoExposure = false,
			AutoShadows = false,
			BlueHue = -100,
			BlueSaturation = -67,
			Brightness = 0,
			CameraProfile = "ACR 2.4",
			ChromaticAberrationB = 0,
			ChromaticAberrationR = 0,
			Clarity = 10,
			ColorNoiseReduction = 5,
			Contrast = 25,
			ConvertToGrayscale = false,
			Defringe = 2,
			EnableCalibration = true,
			EnableColorAdjustments = true,
			EnableDetail = true,
			EnableGrayscaleMix = true,
			EnableLensCorrections = true,
			EnableSplitToning = true,
			Exposure = 1.4,
			FillLight = 30,
			GreenHue = -100,
			GreenSaturation = -100,
			HighlightRecovery = 10,
			HueAdjustmentAqua = 0,
			HueAdjustmentBlue = 0,
			HueAdjustmentGreen = 0,
			HueAdjustmentMagenta = 0,
			HueAdjustmentOrange = -50,
			HueAdjustmentPurple = 0,
			HueAdjustmentRed = 0,
			HueAdjustmentYellow = -71,
			LuminanceAdjustmentAqua = 0,
			LuminanceAdjustmentBlue = 0,
			LuminanceAdjustmentGreen = 0,
			LuminanceAdjustmentMagenta = 0,
			LuminanceAdjustmentOrange = 0,
			LuminanceAdjustmentPurple = 0,
			LuminanceAdjustmentRed = 0,
			LuminanceAdjustmentYellow = 0,
			LuminanceSmoothing = 0,
			ParametricDarks = 30,
			ParametricHighlightSplit = 75,
			ParametricHighlights = 20,
			ParametricLights = 20,
			ParametricMidtoneSplit = 50,
			ParametricShadowSplit = 25,
			ParametricShadows = 30,
			RedHue = -100,
			RedSaturation = 100,
			Saturation = -80,
			SaturationAdjustmentAqua = -12,
			SaturationAdjustmentBlue = -100,
			SaturationAdjustmentGreen = -45,
			SaturationAdjustmentMagenta = 0,
			SaturationAdjustmentOrange = 0,
			SaturationAdjustmentPurple = 0,
			SaturationAdjustmentRed = 0,
			SaturationAdjustmentYellow = -2,
			ShadowTint = 100,
			Shadows = 5,
			SharpenDetail = 25,
			SharpenEdgeMasking = 0,
			SharpenRadius = 1,
			Sharpness = 25,
			SplitToningBalance = 0,
			SplitToningHighlightHue = 39,
			SplitToningHighlightSaturation = 65,
			SplitToningShadowHue = 240,
			SplitToningShadowSaturation = 10,
			Temperature = 5400,
			Tint = -150,
			ToneCurve = {
				0,
				0,
				32,
				16,
				64,
				50,
				128,
				128,
				192,
				202,
				255,
				255,
			},
			ToneCurveName = "Linear",
			Vibrance = 10,
			VignetteAmount = 30,
			VignetteMidpoint = 30,
			WhiteBalance = "Custom",
		},
		uuid = "E58C0EB0-F9F5-4EF8-BD79-48C146A0C433",
	},
	version = 0,
}
