PC Deep Negative.lrtemplate
s = {
internalName = "COL Deep Negative",
title = "COL Deep Negative",
type = "Develop",
value = {
settings =
{

RedHue = 0,
RedSaturation = 0,

GreenHue = 0,
GreenSaturation = 0,

BlueHue = 0,
BlueSaturation = 0,

AutoBrightness = false,
AutoContrast = false,
AutoExposure = false,
AutoShadows = false,

Brightness = 50,
Contrast = -49,

Exposure = 1.65,
FillLight =
0,

ConvertToGrayscale = false,
EnableCalibration = true,
EnableColorAdjustments = true,
EnableDetail = true,
EnableGrayscaleMix = true,
EnableLensCorrections = true,
EnableSplitToning = true,

HighlightRecovery = 0,
HueAdjustmentAqua = 0,
HueAdjustmentBlue = 0,
HueAdjustmentGreen = 0,
HueAdjustmentMagenta =
0,
HueAdjustmentOrange = 0,
HueAdjustmentPurple = 0,
HueAdjustmentRed = 0,
HueAdjustmentYellow = 0,
LuminanceAdjustmentAqua = 0,
LuminanceAdjustmentBlue = 0,
LuminanceAdjustmentGreen = 0,
LuminanceAdjustmentMagenta = 0,
LuminanceAdjustmentOrange = 0,
LuminanceAdjustmentPurple = 0,
LuminanceAdjustmentRed =
0,
LuminanceAdjustmentYellow = 0,
LuminanceSmoothing = 0,

ParametricDarks = 0,
ParametricHighlightSplit = 75,
ParametricHighlights = 0,
ParametricLights = 99,
ParametricMidtoneSplit = 50,
ParametricShadowSplit = 25,
ParametricShadows = 0,

Saturation = 17,

SaturationAdjustmentAqua =
0,
SaturationAdjustmentBlue = 0,
SaturationAdjustmentGreen = 0,
SaturationAdjustmentMagenta = 0,
SaturationAdjustmentOrange = 0,
SaturationAdjustmentPurple = 0,
SaturationAdjustmentRed = 0,
SaturationAdjustmentYellow = 0,

ShadowTint = 0,
Shadows = 0,

Sharpness = 0,

SplitToningBalance =
0,
SplitToningHighlightHue = 0,
SplitToningHighlightSaturation = 0,
SplitToningShadowHue = 0,
SplitToningShadowSaturation = 0,


ToneCurve = {
1,
255,
116,
184,
192,
105,
255,
0,
},
Vibrance = 0,
VignetteAmount =
0,
VignetteMidpoint = 50,
WhiteBalance = "As Shot",
},
uuid = "AEB1623D-7846-44C0-A769-247994F1FF93",
},
version = 0,
-- Roy Nuzzo
}