Rocky Mountain High.lrtemplate
s = {
	id = "82A67D0D-BA60-4907-8DB9-FBA8723A5AFC",
	internalName = "Rocky Mountain High",
	title = "Rocky Mountain High",
	type = "Develop",
	value = {
		settings = {
			AutoBrightness = false,
			AutoContrast = false,
			AutoExposure = false,
			AutoShadows = false,
			BlueHue = -31,
			BlueSaturation = -69,
			Brightness = 50,
			CameraProfile = "ACR 3.4",
			ChromaticAberrationB = 0,
			ChromaticAberrationR = 0,
			Clarity = 0,
			ColorNoiseReduction = 25,
			Contrast = 45,
			ConvertToGrayscale = false,
			Defringe = 2,
			EnableCalibration = true,
			EnableColorAdjustments = true,
			EnableDetail = true,
			EnableGrayscaleMix = true,
			EnableSplitToning = true,
			EnableVignettes = true,
			Exposure = 0,
			FillLight = 51,
			GreenHue = 29,
			GreenSaturation = 71,
			HighlightRecovery = 100,
			HueAdjustmentAqua = 100,
			HueAdjustmentBlue = 7,
			HueAdjustmentGreen = 0,
			HueAdjustmentMagenta = 0,
			HueAdjustmentOrange = 0,
			HueAdjustmentPurple = 0,
			HueAdjustmentRed = 19,
			HueAdjustmentYellow = 0,
			LuminanceAdjustmentAqua = 100,
			LuminanceAdjustmentBlue = 100,
			LuminanceAdjustmentGreen = 50,
			LuminanceAdjustmentMagenta = 0,
			LuminanceAdjustmentOrange = 100,
			LuminanceAdjustmentPurple = 0,
			LuminanceAdjustmentRed = 0,
			LuminanceAdjustmentYellow = 100,
			LuminanceSmoothing = 15,
			ParametricDarks = 5,
			ParametricHighlightSplit = 75,
			ParametricHighlights = 0,
			ParametricLights = 40,
			ParametricMidtoneSplit = 50,
			ParametricShadowSplit = 25,
			ParametricShadows = -21,
			PostCropVignetteAmount = 0,
			PostCropVignetteMidpoint = 50,
			RedHue = 100,
			RedSaturation = -67,
			Saturation = 100,
			SaturationAdjustmentAqua = -100,
			SaturationAdjustmentBlue = -14,
			SaturationAdjustmentGreen = -60,
			SaturationAdjustmentMagenta = -100,
			SaturationAdjustmentOrange = -36,
			SaturationAdjustmentPurple = -100,
			SaturationAdjustmentRed = -100,
			SaturationAdjustmentYellow = -52,
			ShadowTint = -62,
			Shadows = 15,
			SharpenDetail = 25,
			SharpenEdgeMasking = 0,
			SharpenRadius = 1,
			Sharpness = 15,
			SplitToningBalance = 0,
			SplitToningHighlightHue = 51,
			SplitToningHighlightSaturation = 29,
			SplitToningShadowHue = 43,
			SplitToningShadowSaturation = 5,
			Temperature = 5600,
			Tint = 14,
			ToneCurve = {
				0,
				0,
				32,
				22,
				64,
				56,
				128,
				128,
				192,
				196,
				255,
				255,
			},
			ToneCurveName = "Medium Contrast",
			Vibrance = -29,
			VignetteAmount = 5,
			VignetteMidpoint = 76,
			WhiteBalance = "Custom",
		},
		uuid = "939C2868-9169-4526-9489-0DB255399799",
	},
	version = 0,
}
