Rust.lrtemplate
s = {
	internalName = "Rust",
	title = "Rust",
	type = "Develop",
	value = {
		settings = {
			AutoBrightness = false,
			AutoContrast = false,
			AutoExposure = false,
			AutoShadows = false,
			BlueHue = -100,
			BlueSaturation = -100,
			Brightness = 5,
			CameraProfile = "ACR 2.4",
			CameraProfileDigest = "102143F0A7B993F9A3079ADC9B2A11B7",
			ChromaticAberrationB = 0,
			ChromaticAberrationR = 0,
			Clarity = 15,
			ColorNoiseReduction = 5,
			Contrast = 30,
			ConvertToGrayscale = false,
			Defringe = 2,
			EnableCalibration = true,
			EnableColorAdjustments = true,
			EnableDetail = true,
			EnableGrayscaleMix = true,
			EnableLensCorrections = true,
			EnableSplitToning = true,
			Exposure = 1.1,
			FillLight = 31,
			GreenHue = -55,
			GreenSaturation = 0,
			HighlightRecovery = 30,
			HueAdjustmentAqua = 0,
			HueAdjustmentBlue = 0,
			HueAdjustmentGreen = 0,
			HueAdjustmentMagenta = 0,
			HueAdjustmentOrange = -50,
			HueAdjustmentPurple = 0,
			HueAdjustmentRed = 0,
			HueAdjustmentYellow = -71,
			LuminanceAdjustmentAqua = 0,
			LuminanceAdjustmentBlue = 0,
			LuminanceAdjustmentGreen = 0,
			LuminanceAdjustmentMagenta = 0,
			LuminanceAdjustmentOrange = 57,
			LuminanceAdjustmentPurple = 0,
			LuminanceAdjustmentRed = -5,
			LuminanceAdjustmentYellow = -24,
			LuminanceSmoothing = 0,
			ParametricDarks = 30,
			ParametricHighlightSplit = 75,
			ParametricHighlights = -15,
			ParametricLights = 20,
			ParametricMidtoneSplit = 50,
			ParametricShadowSplit = 25,
			ParametricShadows = 30,
			RedHue = 100,
			RedSaturation = 48,
			Saturation = -62,
			SaturationAdjustmentAqua = -12,
			SaturationAdjustmentBlue = -100,
			SaturationAdjustmentGreen = -45,
			SaturationAdjustmentMagenta = 0,
			SaturationAdjustmentOrange = 79,
			SaturationAdjustmentPurple = 0,
			SaturationAdjustmentRed = 0,
			SaturationAdjustmentYellow = -2,
			ShadowTint = -100,
			Shadows = 5,
			SharpenDetail = 25,
			SharpenEdgeMasking = 0,
			SharpenRadius = 1,
			Sharpness = 25,
			SplitToningBalance = 0,
			SplitToningHighlightHue = 40,
			SplitToningHighlightSaturation = 35,
			SplitToningShadowHue = 10,
			SplitToningShadowSaturation = 7,
			Temperature = 5810,
			Tint = -150,
			ToneCurve = {
				0,
				0,
				32,
				16,
				64,
				50,
				128,
				128,
				192,
				202,
				255,
				255,
			},
			ToneCurveName = "Linear",
			Vibrance = -50,
			VignetteAmount = 30,
			VignetteMidpoint = 30,
			WhiteBalance = "Custom",
		},
		uuid = "DE49C8E4-847B-4BBE-AB5C-8D2F4A1793D6",
	},
	version = 0,
}
