Seim Fantasy Basic (J).lrtemplate
s = {
	internalName = "2. Fantasy Basic (J)",
	title = "2. Fantasy Basic (J)",
	type = "Develop",
	value = {
		settings = {
			AutoBrightness = false,
			AutoContrast = false,
			AutoExposure = false,
			AutoShadows = false,
			Brightness = 25,
			Clarity = 50,
			Contrast = 5,
			ConvertToGrayscale = false,
			EnableColorAdjustments = true,
			EnableGrayscaleMix = true,
			EnableLensCorrections = true,
			Exposure = 0.15,
			FillLight = 20,
			HighlightRecovery = 18,
			HueAdjustmentAqua = 0,
			HueAdjustmentBlue = 0,
			HueAdjustmentGreen = 0,
			HueAdjustmentMagenta = 0,
			HueAdjustmentOrange = 0,
			HueAdjustmentPurple = 0,
			HueAdjustmentRed = 0,
			HueAdjustmentYellow = 0,
			LuminanceAdjustmentAqua = 0,
			LuminanceAdjustmentBlue = 0,
			LuminanceAdjustmentGreen = 0,
			LuminanceAdjustmentMagenta = 0,
			LuminanceAdjustmentOrange = 0,
			LuminanceAdjustmentPurple = 0,
			LuminanceAdjustmentRed = 0,
			LuminanceAdjustmentYellow = 0,
			ParametricDarks = -5,
			ParametricHighlightSplit = 75,
			ParametricHighlights = 32,
			ParametricLights = 0,
			ParametricMidtoneSplit = 50,
			ParametricShadowSplit = 25,
			ParametricShadows = 11,
			Saturation = -16,
			SaturationAdjustmentAqua = 0,
			SaturationAdjustmentBlue = 0,
			SaturationAdjustmentGreen = 0,
			SaturationAdjustmentMagenta = 0,
			SaturationAdjustmentOrange = 0,
			SaturationAdjustmentPurple = 0,
			SaturationAdjustmentRed = 0,
			SaturationAdjustmentYellow = 0,
			Shadows = 6,
			ToneCurve = {
				0,
				0,
				255,
				255,
			},
			ToneCurveName = "Medium Contrast",
			Vibrance = 4,
			VignetteAmount = -100,
			VignetteMidpoint = 37,
			WhiteBalance = "As Shot",
		},
		uuid = "244BCC2A-0115-4573-A545-781A6F2AC6C8",
	},
	version = 0,
}
