Skin Tone.lrtemplate
s = {
	id = "297C1492-2F39-45A7-970C-CF9CE149A50C",
	internalName = "Skin Tone",
	title = "Skin Tone",
	type = "Develop",
	value = {
		settings = {
			Clarity = 61,
			ConvertToGrayscale = false,
			EnableColorAdjustments = true,
			EnableGrayscaleMix = true,
			HueAdjustmentAqua = 0,
			HueAdjustmentBlue = 0,
			HueAdjustmentGreen = 0,
			HueAdjustmentMagenta = 0,
			HueAdjustmentOrange = 0,
			HueAdjustmentPurple = 0,
			HueAdjustmentRed = -2,
			HueAdjustmentYellow = 0,
			LuminanceAdjustmentAqua = 0,
			LuminanceAdjustmentBlue = 0,
			LuminanceAdjustmentGreen = 0,
			LuminanceAdjustmentMagenta = 0,
			LuminanceAdjustmentOrange = 0,
			LuminanceAdjustmentPurple = 0,
			LuminanceAdjustmentRed = 0,
			LuminanceAdjustmentYellow = 0,
			Saturation = 0,
			SaturationAdjustmentAqua = 0,
			SaturationAdjustmentBlue = 0,
			SaturationAdjustmentGreen = 0,
			SaturationAdjustmentMagenta = 0,
			SaturationAdjustmentOrange = 29,
			SaturationAdjustmentPurple = 0,
			SaturationAdjustmentRed = 0,
			SaturationAdjustmentYellow = 19,
			Vibrance = 24,
		},
		uuid = "6BAF7FEC-AF3A-429C-8142-D7ECCEB77D59",
	},
	version = 0,
}
