Split to Blue.lrtemplate
s = {
	internalName = "Split to Blue",
	title = "Split to Blue",
	type = "Develop",
	value = {
		settings = {
			AutoBrightness = false,
			AutoContrast = false,
			AutoExposure = false,
			AutoShadows = false,
			Brightness = 79,
			ChromaticAberrationB = 0,
			ChromaticAberrationR = 0,
			Clarity = 12,
			Contrast = -50,
			ConvertToGrayscale = true,
			Defringe = 0,
			EnableColorAdjustments = true,
			EnableDetail = true,
			EnableGrayscaleMix = true,
			EnableLensCorrections = true,
			EnableSplitToning = true,
			Exposure = 0.762,
			FillLight = 46,
			GrayMixerAqua = -8,
			GrayMixerBlue = 9,
			GrayMixerGreen = -18,
			GrayMixerMagenta = -5,
			GrayMixerOrange = -17,
			GrayMixerPurple = 8,
			GrayMixerRed = -14,
			GrayMixerYellow = -18,
			HighlightRecovery = 0,
			IncrementalTemperature = -31,
			IncrementalTint = -5,
			LuminanceSmoothing = 0,
			ParametricDarks = 0,
			ParametricHighlightSplit = 75,
			ParametricHighlights = 0,
			ParametricLights = 0,
			ParametricMidtoneSplit = 50,
			ParametricShadowSplit = 25,
			ParametricShadows = 0,
			Shadows = 46,
			SharpenDetail = 25,
			SharpenEdgeMasking = 0,
			SharpenRadius = 1,
			Sharpness = 25,
			SplitToningBalance = 14,
			SplitToningHighlightHue = 34,
			SplitToningHighlightSaturation = 11,
			SplitToningShadowHue = 214,
			SplitToningShadowSaturation = 40,
			ToneCurve = {
				0,
				0,
				32,
				16,
				64,
				50,
				128,
				128,
				192,
				202,
				255,
				255,
			},
			ToneCurveName = "Medium Contrast",
			VignetteAmount = -100,
			VignetteMidpoint = 25,
			WhiteBalance = "Custom",
		},
		uuid = "F97EF200-D6A5-49B5-8E15-FED17D78987A",
	},
	version = 0,
}
